icon_installer/data/icons/scalable/actions/show-scattered-clouds-symbolic.svg

<?xml version="1.0" encoding="UTF-8"?>
<svg height="16px" viewBox="0 0 16 16" width="16px" xmlns="http://www.w3.org/2000/svg">
    <path d="m 8 0 l -1 2 c 0.628906 -0.113281 1.289062 -0.136719 2 0 z m -5.65625 2.34375 l 0.707031 2.121094 c 0.40625 -0.601563 0.890625 -1.046875 1.414063 -1.414063 z m 11.3125 0 l -2.121094 0.707031 c 0.523438 0.367188 1.007813 0.8125 1.414063 1.414063 z m -5.65625 0.65625 c -2.75 0 -5 2.25 -5 5 c 0 1.785156 0.957031 3.363281 2.375 4.25 c 0.167969 -0.074219 0.347656 -0.140625 0.53125 -0.1875 c 0.230469 -1.816406 1.71875 -3.25 3.59375 -3.25 c 1.003906 0 1.839844 0.472656 2.5 1.125 c 0.175781 -0.035156 0.308594 -0.125 0.5 -0.125 c 0.042969 0 0.082031 -0.003906 0.125 0 c 0.222656 -0.566406 0.375 -1.167969 0.375 -1.8125 c 0 -2.75 -2.25 -5 -5 -5 z m -6 4 l -2 1 l 2 1 c -0.113281 -0.628906 -0.136719 -1.289062 0 -2 z m 12 0 c 0.136719 0.710938 0.113281 1.371094 0 2 l 2 -1 z m -4.5 3 c -1.378906 0 -2.5 1.121094 -2.5 2.5 c 0 0.21875 0.042969 0.421875 0.09375 0.625 c -0.179688 -0.074219 -0.386719 -0.125 -0.59375 -0.125 c -0.828125 0 -1.5 0.671875 -1.5 1.5 s 0.671875 1.5 1.5 1.5 h 8 c 0.828125 0 1.5 -0.671875 1.5 -1.5 s -0.671875 -1.5 -1.5 -1.5 c 0 -1.105469 -0.894531 -2 -2 -2 c -0.316406 0 -0.609375 0.089844 -0.875 0.21875 c -0.4375 -0.726562 -1.214844 -1.21875 -2.125 -1.21875 z m -6.449219 1.535156 l -0.707031 2.121094 l 2.121094 -0.707031 c -0.601563 -0.40625 -1.046875 -0.890625 -1.414063 -1.414063 z m 0 0" fill="#222222"/>
</svg>

<svg xmlns="http://www.w3.org/2000/svg" width="16" height="16"><path fill="#222" d="M8 0 7 2a5.375 5.375 0 0 1 2 0zM2.344 2.344l.707 2.12a5.404 5.404 0 0 1 1.414-1.413zm11.312 0-2.12.707a5.404 5.404 0 0 1 1.413 1.414zM8 3C5.25 3 3 5.25 3 8c0 1.785.957 3.363 2.375 4.25a3.42 3.42 0 0 1 .531-.188c.23-1.816 1.719-3.25 3.594-3.25 1.004 0 1.84.473 2.5 1.126.176-.036.309-.126.5-.126.043 0 .082-.003.125 0C12.848 9.246 13 8.646 13 8c0-2.75-2.25-5-5-5zM2 7 0 8l2 1a5.375 5.375 0 0 1 0-2zm12 0c.137.71.113 1.371 0 2l2-1zm-4.5 3A2.502 2.502 0 0 0 7 12.5c0 .219.043.422.094.625A1.582 1.582 0 0 0 6.5 13a1.5 1.5 0 0 0 0 3h8a1.5 1.5 0 0 0 0-3 2 2 0 0 0-2-2 2 2 0 0 0-.875.219A2.473 2.473 0 0 0 9.5 10zm-6.45 1.535-.706 2.121 2.12-.707a5.404 5.404 0 0 1-1.413-1.414zm0 0"/></svg>
